X:1
T: Kirkney Water
C:Alexander Walker
R:Reel
Q: 232
K:G
M:4/4
L:1/8
|:d|g2 dc BG dB|cA eA cA Af|g2 dd BG dG|FE DC B,G, G,d|
g2 dc BG dB|cA eA cA Af|g2 dd BG dG|FE DC B,G, G,e|
de ga b2 ag|ag ab ge eg|dB gB cB AG|AG BA GE Ee|
de ga b2 ag|ag ab ge ed|eg db ca Bg|EA DF GG, G,:|
